;FLAVOR:Marlin
;TIME:20463
;Filament used: 16.6903m
;Layer height: 0.15
;MINX:23.549
;MINY:18.164
;MINZ:0.3
;MAXX:179.817
;MAXY:181.333
;MAXZ:30
;Generated with Cura_SteamEngine 4.8.0
M140 S50
M105
M190 S50
M104 S215
M105
M109 S215
M82 ;absolute extrusion mode
G21 ;metric values
G90 ;absolute positioning
M82 ;set extruder to absolute mode
M107 ;start with the fan off
G28 X0 Y0 ;move X/Y to min endstops
G28 Z0 ;move Z to min endstops
G1 Z15.0 F9000 ;move the platform down 15mm
G92 E0 ;zero the extruded length
G1 F200 E3 ;extrude 3mm of feed stock
G92 E0 ;zero the extruded length again
G1 F9000
;Put printing message on LCD screen
M117 Printing...
G92 E0
G92 E0
G1 F1500 E-6.5
;LAYER_COUNT:199
;LAYER:0
M107
G1 F600 Z1.3
G0 F3600 X39.176 Y22.907 Z1.3
;TYPE:SKIRT
G1 F600 Z0.3
G1 F1500 E0
G1 F1800 X39.667 Y22.171 E0.04414
G1 X40.222 Y21.481 E0.08832
G1 X40.837 Y20.844 E0.13249
G1 X41.507 Y20.266 E0.17664
G1 X42.226 Y19.75 E0.22079
G1 X42.989 Y19.301 E0.26496
G1 X43.79 Y18.923 E0.30915
G1 X44.621 Y18.619 E0.35329
G1 X45.476 Y18.391 E0.39744
G1 X46.349 Y18.241 E0.44163
G1 X47.571 Y18.164 E0.50272
G1 X117.571 Y18.164 E3.99503
G1 X118.455 Y18.204 E4.03918
G1 X119.332 Y18.324 E4.08334
G1 X120.195 Y18.522 E4.12752
G1 X121.036 Y18.797 E4.17166
G1 X121.849 Y19.147 E4.21582
G1 X122.628 Y19.569 E4.26002
G1 X123.364 Y20.06 E4.30416
G1 X124.054 Y20.615 E4.34834
G1 X124.691 Y21.23 E4.39251
G1 X125.269 Y21.9 E4.43666
G1 X125.785 Y22.619 E4.48081
G1 X126.234 Y23.382 E4.52498
G1 X126.612 Y24.183 E4.56917
G1 X126.916 Y25.014 E4.61332
G1 X127.144 Y25.869 E4.65746
G1 X127.294 Y26.742 E4.70165
G1 X127.371 Y27.964 E4.76274
G1 X127.371 Y62.32 E6.47677
G1 X127.854 Y61.973 E6.50644
G1 X128.617 Y61.524 E6.55061
G1 X129.418 Y61.146 E6.5948
G1 X130.249 Y60.842 E6.63894
G1 X131.104 Y60.614 E6.68309
G1 X131.977 Y60.464 E6.72728
G1 X133.199 Y60.387 E6.78837
G1 X162.699 Y60.387 E8.26013
G1 X163.583 Y60.427 E8.30428
G1 X164.46 Y60.547 E8.34844
G1 X165.323 Y60.745 E8.39261
G1 X166.164 Y61.02 E8.43676
G1 X166.977 Y61.37 E8.48092
G1 X167.756 Y61.792 E8.52512
G1 X168.492 Y62.283 E8.56926
G1 X169.182 Y62.838 E8.61344
G1 X169.819 Y63.453 E8.65761
G1 X170.397 Y64.123 E8.70176
G1 X170.913 Y64.842 E8.74591
G1 X171.362 Y65.605 E8.79008
G1 X171.74 Y66.406 E8.83426
G1 X172.044 Y67.237 E8.87841
G1 X172.272 Y68.092 E8.92256
G1 X172.422 Y68.965 E8.96675
G1 X172.499 Y70.187 E9.02784
G1 X172.499 Y80.187 E9.52674
G1 X172.459 Y81.071 E9.57089
G1 X172.339 Y81.948 E9.61505
G1 X172.141 Y82.811 E9.65922
G1 X171.866 Y83.652 E9.70337
G1 X171.516 Y84.465 E9.74753
G1 X171.094 Y85.244 E9.79173
G1 X170.603 Y85.98 E9.83587
G1 X170.048 Y86.67 E9.88004
G1 X169.433 Y87.307 E9.92422
G1 X168.763 Y87.885 E9.96837
G1 X168.044 Y88.401 E10.01252
G1 X167.281 Y88.85 E10.05669
G1 X166.48 Y89.228 E10.10087
G1 X165.649 Y89.532 E10.14502
G1 X164.794 Y89.76 E10.18917
G1 X163.921 Y89.91 E10.23336
G1 X162.699 Y89.987 E10.29445
G1 X133.199 Y89.987 E11.76621
G1 X132.315 Y89.947 E11.81036
G1 X131.438 Y89.827 E11.85452
G1 X130.575 Y89.629 E11.89869
G1 X129.734 Y89.354 E11.94283
G1 X128.921 Y89.004 E11.98699
G1 X128.142 Y88.582 E12.03119
G1 X127.406 Y88.091 E12.07533
G1 X127.371 Y88.063 E12.07757
G1 X127.371 Y91.897 E12.26885
G1 X170.017 Y91.897 E14.39647
G1 X170.901 Y91.937 E14.44062
G1 X171.778 Y92.057 E14.48478
G1 X172.641 Y92.255 E14.52895
G1 X173.482 Y92.53 E14.57309
G1 X174.295 Y92.88 E14.61725
G1 X175.074 Y93.302 E14.66146
G1 X175.81 Y93.793 E14.7056
G1 X176.5 Y94.348 E14.74977
G1 X177.137 Y94.963 E14.79395
G1 X177.715 Y95.633 E14.83809
G1 X178.231 Y96.352 E14.88225
G1 X178.68 Y97.115 E14.92642
G1 X179.058 Y97.916 E14.9706
G1 X179.362 Y98.747 E15.01475
G1 X179.59 Y99.602 E15.0589
G1 X179.74 Y100.475 E15.10309
G1 X179.817 Y101.697 E15.16418
G1 X179.817 Y161.697 E18.15759
G1 X179.777 Y162.581 E18.20174
G1 X179.657 Y163.458 E18.2459
G1 X179.459 Y164.321 E18.29007
G1 X179.184 Y165.162 E18.33421
G1 X178.834 Y165.975 E18.37837
G1 X178.412 Y166.754 E18.42257
G1 X177.921 Y167.49 E18.46672
G1 X177.366 Y168.18 E18.51089
G1 X176.751 Y168.817 E18.55507
G1 X176.081 Y169.395 E18.59921
G1 X175.362 Y169.911 E18.64337
G1 X174.599 Y170.36 E18.68753
G1 X173.798 Y170.738 E18.73172
G1 X172.967 Y171.042 E18.77587
G1 X172.112 Y171.27 E18.82002
G1 X171.239 Y171.42 E18.86421
G1 X170.017 Y171.497 E18.92529
G1 X113.149 Y171.497 E21.76245
G1 X113.149 Y171.533 E21.76425
G1 X113.109 Y172.417 E21.80839
G1 X112.989 Y173.294 E21.85256
G1 X112.791 Y174.157 E21.89673
G1 X112.516 Y174.998 E21.94087
G1 X112.166 Y175.811 E21.98503
G1 X111.744 Y176.59 E22.02923
G1 X111.253 Y177.326 E22.07337
G1 X110.698 Y178.016 E22.11755
G1 X110.083 Y178.653 E22.16173
G1 X109.413 Y179.231 E22.20587
G1 X108.694 Y179.747 E22.25003
G1 X107.931 Y180.196 E22.29419
G1 X107.13 Y180.574 E22.33838
G1 X106.299 Y180.878 E22.38253
G1 X105.444 Y181.106 E22.42667
G1 X104.571 Y181.256 E22.47087
G1 X103.349 Y181.333 E22.53195
G1 X33.349 Y181.333 E26.02427
G1 X32.465 Y181.293 E26.06842
G1 X31.588 Y181.173 E26.11258
G1 X30.725 Y180.975 E26.15675
G1 X29.884 Y180.7 E26.2009
G1 X29.071 Y180.35 E26.24506
G1 X28.292 Y179.928 E26.28926
G1 X27.556 Y179.437 E26.3334
G1 X26.866 Y178.882 E26.37757
G1 X26.229 Y178.267 E26.42175
G1 X25.651 Y177.597 E26.46589
G1 X25.135 Y176.878 E26.51005
G1 X24.686 Y176.115 E26.55422
G1 X24.308 Y175.314 E26.5984
G1 X24.004 Y174.483 E26.64255
G1 X23.776 Y173.628 E26.6867
G1 X23.626 Y172.755 E26.73089
G1 X23.549 Y171.533 E26.79198
G1 X23.549 Y101.533 E30.28429
G1 X23.589 Y100.649 E30.32844
G1 X23.709 Y99.772 E30.3726
G1 X23.907 Y98.909 E30.41677
G1 X24.182 Y98.068 E30.46092
G1 X24.532 Y97.255 E30.50508
G1 X24.954 Y96.476 E30.54928
G1 X25.445 Y95.74 E30.59342
G1 X26 Y95.05 E30.6376
G1 X26.615 Y94.413 E30.68177
G1 X27.285 Y93.835 E30.72592
G1 X28.004 Y93.319 E30.77007
G1 X28.767 Y92.87 E30.81424
G1 X29.568 Y92.492 E30.85843
G1 X30.399 Y92.188 E30.90257
G1 X31.254 Y91.96 E30.94672
G1 X32.127 Y91.81 E30.99091
G1 X33.349 Y91.733 E31.052
G1 X37.771 Y91.733 E31.27261
G1 X37.771 Y27.964 E34.45406
G1 X37.811 Y27.08 E34.49821
G1 X37.931 Y26.203 E34.54237
G1 X38.129 Y25.34 E34.58654
G1 X38.404 Y24.499 E34.63069
G1 X38.754 Y23.686 E34.67485
G1 X39.176 Y22.907 E34.71905
G0 F3600 X39.575 Y23.022
G1 F1800 X40.064 Y22.307 E34.76226
G1 X40.617 Y21.639 E34.80553
G1 X41.23 Y21.025 E34.84881
G1 X41.896 Y20.47 E34.89207
G1 X42.61 Y19.98 E34.93527
G1 X43.367 Y19.556 E34.97856
G1 X44.16 Y19.205 E35.02182
G1 X44.981 Y18.928 E35.06505
G1 X45.825 Y18.728 E35.10832
G1 X46.683 Y18.606 E35.15156
G1 X47.571 Y18.564 E35.19591
G1 X117.571 Y18.564 E38.68823
G1 X118.437 Y18.604 E38.73148
G1 X119.296 Y18.724 E38.77475
G1 X120.14 Y18.922 E38.818
G1 X120.962 Y19.197 E38.86124
G1 X121.755 Y19.547 E38.90449
G1 X122.513 Y19.968 E38.94775
G1 X123.228 Y20.457 E38.99096
G1 X123.896 Y21.01 E39.03423
G1 X124.51 Y21.623 E39.07751
G1 X125.065 Y22.289 E39.12076
G1 X125.555 Y23.003 E39.16397
G1 X125.979 Y23.76 E39.20726
G1 X126.33 Y24.553 E39.25052
G1 X126.607 Y25.374 E39.29375
G1 X126.807 Y26.218 E39.33702
G1 X126.929 Y27.076 E39.38026
G1 X126.971 Y27.964 E39.42461
G1 X126.971 Y63.154 E41.18025
G1 X127.524 Y62.693 E41.21617
G1 X128.238 Y62.203 E41.25937
G1 X128.995 Y61.779 E41.30266
G1 X129.788 Y61.428 E41.34592
G1 X130.609 Y61.151 E41.38915
G1 X131.453 Y60.951 E41.43242
G1 X132.311 Y60.829 E41.47566
G1 X133.199 Y60.787 E41.52001
G1 X162.699 Y60.787 E42.99177
G1 X163.565 Y60.827 E43.03502
G1 X164.424 Y60.947 E43.0783
G1 X165.268 Y61.145 E43.12155
G1 X166.09 Y61.42 E43.16479
G1 X166.883 Y61.77 E43.20803
G1 X167.641 Y62.191 E43.25129
G1 X168.356 Y62.68 E43.29451
G1 X169.024 Y63.233 E43.33777
G1 X169.638 Y63.846 E43.38106
G1 X170.193 Y64.512 E43.42431
G1 X170.683 Y65.226 E43.46751
G1 X171.107 Y65.983 E43.5108
G1 X171.458 Y66.776 E43.55407
G1 X171.735 Y67.597 E43.5973
G1 X171.935 Y68.441 E43.64057
G1 X172.057 Y69.299 E43.68381
G1 X172.099 Y70.187 E43.72816
G1 X172.099 Y80.187 E44.22706
G1 X172.059 Y81.053 E44.27031
G1 X171.939 Y81.912 E44.31358
G1 X171.741 Y82.756 E44.35683
G1 X171.466 Y83.578 E44.40008
G1 X171.116 Y84.371 E44.44332
G1 X170.695 Y85.129 E44.48658
G1 X170.206 Y85.844 E44.5298
G1 X169.653 Y86.512 E44.57306
G1 X169.04 Y87.126 E44.61635
G1 X168.374 Y87.681 E44.6596
G1 X167.66 Y88.171 E44.7028
G1 X166.903 Y88.595 E44.74609
G1 X166.11 Y88.946 E44.78935
G1 X165.289 Y89.223 E44.83258
G1 X164.445 Y89.423 E44.87586
G1 X163.587 Y89.545 E44.91909
G1 X162.699 Y89.587 E44.96344
G1 X133.199 Y89.587 E46.4352
G1 X132.333 Y89.547 E46.47846
G1 X131.474 Y89.427 E46.52173
G1 X130.63 Y89.229 E46.56498
G1 X129.808 Y88.954 E46.60822
G1 X129.015 Y88.604 E46.65147
G1 X128.257 Y88.183 E46.69473
G1 X127.542 Y87.694 E46.73794
G1 X126.971 Y87.221 E46.77493
G1 X126.971 Y92.297 E47.02818
G1 X170.017 Y92.297 E49.17575
G1 X170.883 Y92.337 E49.219
G1 X171.742 Y92.457 E49.26227
G1 X172.586 Y92.655 E49.30552
G1 X173.408 Y92.93 E49.34877
G1 X174.201 Y93.28 E49.39201
G1 X174.959 Y93.701 E49.43527
G1 X175.674 Y94.19 E49.47849
G1 X176.342 Y94.743 E49.52175
G1 X176.956 Y95.356 E49.56504
G1 X177.511 Y96.022 E49.60829
G1 X178.001 Y96.736 E49.65149
G1 X178.425 Y97.493 E49.69478
G1 X178.776 Y98.286 E49.73804
G1 X179.053 Y99.107 E49.78127
G1 X179.253 Y99.951 E49.82455
G1 X179.375 Y100.809 E49.86778
G1 X179.417 Y101.697 E49.91213
G1 X179.417 Y161.697 E52.90555
G1 X179.377 Y162.563 E52.9488
G1 X179.257 Y163.422 E52.99207
G1 X179.059 Y164.266 E53.03532
G1 X178.784 Y165.088 E53.07856
G1 X178.434 Y165.881 E53.12181
G1 X178.013 Y166.639 E53.16507
G1 X177.524 Y167.354 E53.20828
G1 X176.971 Y168.022 E53.25155
G1 X176.358 Y168.636 E53.29483
G1 X175.692 Y169.191 E53.33809
G1 X174.978 Y169.681 E53.38129
G1 X174.221 Y170.105 E53.42458
G1 X173.428 Y170.456 E53.46784
G1 X172.607 Y170.733 E53.51107
G1 X171.763 Y170.933 E53.55434
G1 X170.905 Y171.055 E53.59758
G1 X170.017 Y171.097 E53.64193
G1 X112.749 Y171.097 E56.49904
G1 X112.749 Y171.533 E56.5208
G1 X112.709 Y172.399 E56.56405
G1 X112.589 Y173.258 E56.60732
G1 X112.391 Y174.102 E56.65057
G1 X112.116 Y174.924 E56.69381
G1 X111.766 Y175.717 E56.73706
G1 X111.345 Y176.475 E56.78032
G1 X110.856 Y177.19 E56.82353
G1 X110.303 Y177.858 E56.8668
G1 X109.69 Y178.472 E56.91008
G1 X109.024 Y179.027 E56.95333
G1 X108.31 Y179.517 E56.99654
G1 X107.553 Y179.941 E57.03982
G1 X106.76 Y180.292 E57.08309
G1 X105.939 Y180.569 E57.12632
G1 X105.095 Y180.769 E57.16959
G1 X104.237 Y180.891 E57.21283
G1 X103.349 Y180.933 E57.25718
G1 X33.349 Y180.933 E60.74949
G1 X32.483 Y180.893 E60.79275
G1 X31.624 Y180.773 E60.83602
G1 X30.78 Y180.575 E60.87927
G1 X29.958 Y180.3 E60.92251
G1 X29.165 Y179.95 E60.96576
G1 X28.407 Y179.529 E61.00901
G1 X27.692 Y179.04 E61.05223
G1 X27.024 Y178.487 E61.0955
G1 X26.41 Y177.874 E61.13878
G1 X25.855 Y177.208 E61.18203
G1 X25.365 Y176.494 E61.22524
G1 X24.941 Y175.737 E61.26852
G1 X24.59 Y174.944 E61.31179
G1 X24.313 Y174.123 E61.35502
G1 X24.113 Y173.279 E61.39829
G1 X23.991 Y172.421 E61.44153
G1 X23.949 Y171.533 E61.48588
G1 X23.949 Y101.533 E64.97819
G1 X23.989 Y100.667 E65.02144
G1 X24.109 Y99.808 E65.06472
G1 X24.307 Y98.964 E65.10797
G1 X24.582 Y98.142 E65.15121
G1 X24.932 Y97.349 E65.19446
G1 X25.353 Y96.591 E65.23771
G1 X25.842 Y95.876 E65.28093
G1 X26.395 Y95.208 E65.32419
G1 X27.008 Y94.594 E65.36748
G1 X27.674 Y94.039 E65.41073
G1 X28.388 Y93.549 E65.45393
G1 X29.145 Y93.125 E65.49722
G1 X29.938 Y92.774 E65.54049
G1 X30.759 Y92.497 E65.58372
G1 X31.603 Y92.297 E65.62699
G1 X32.461 Y92.175 E65.67023
G1 X33.349 Y92.133 E65.71458
G1 X38.171 Y92.133 E65.95515
G1 X38.171 Y27.964 E69.15655
G1 X38.211 Y27.098 E69.1998
G1 X38.331 Y26.239 E69.24308
G1 X38.529 Y25.395 E69.28633
G1 X38.804 Y24.573 E69.32957
G1 X39.154 Y23.78 E69.37281
G1 X39.575 Y23.022 E69.41607
G0 F3600 X39.973 Y23.14
G1 F1800 X40.461 Y22.446 E69.4584
G1 X41.012 Y21.801 E69.50072
G1 X41.622 Y21.211 E69.54306
G1 X42.284 Y20.681 E69.58537
G1 X42.993 Y20.215 E69.6277
G1 X43.743 Y19.819 E69.67001
G1 X44.527 Y19.494 E69.71235
G1 X45.338 Y19.245 E69.75468
G1 X46.169 Y19.074 E69.797
G1 X47.012 Y18.981 E69.83932
G1 X47.571 Y18.964 E69.86722
G1 X117.571 Y18.964 E73.35953
G1 X118.418 Y19.004 E73.40184
G1 X119.258 Y19.124 E73.44417
G1 X120.083 Y19.322 E73.4865
G1 X120.886 Y19.597 E73.52884
G1 X121.659 Y19.946 E73.57116
G1 X122.395 Y20.366 E73.61344
G1 X123.089 Y20.854 E73.65576
G1 X123.734 Y21.405 E73.69808
G1 X124.324 Y22.015 E73.74042
G1 X124.854 Y22.677 E73.78273
G1 X125.32 Y23.386 E73.82506
G1 X125.716 Y24.136 E73.86737
G1 X126.041 Y24.92 E73.90971
G1 X126.29 Y25.731 E73.95204
G1 X126.461 Y26.562 E73.99437
G1 X126.554 Y27.405 E74.03668
G1 X126.571 Y27.964 E74.06458
G1 X126.571 Y64.105 E75.86766
G1 X126.64 Y64.024 E75.87297
G1 X127.25 Y63.434 E75.91531
G1 X127.912 Y62.904 E75.95762
G1 X128.621 Y62.438 E75.99995
G1 X129.371 Y62.042 E76.04226
G1 X130.155 Y61.717 E76.0846
G1 X130.966 Y61.468 E76.12693
G1 X131.797 Y61.297 E76.16925
G1 X132.64 Y61.204 E76.21157
G1 X133.199 Y61.187 E76.23947
G1 X162.699 Y61.187 E77.71123
G1 X163.546 Y61.227 E77.75353
G1 X164.386 Y61.347 E77.79587
G1 X165.211 Y61.545 E77.8382
G1 X166.014 Y61.82 E77.88054
G1 X166.787 Y62.169 E77.92285
G1 X167.523 Y62.589 E77.96513
G1 X168.217 Y63.077 E78.00746
G1 X168.862 Y63.628 E78.04978
G1 X169.452 Y64.238 E78.09212
G1 X169.982 Y64.9 E78.13443
G1 X170.448 Y65.609 E78.17676
G1 X170.844 Y66.359 E78.21907
G1 X171.169 Y67.143 E78.26141
G1 X171.418 Y67.954 E78.30374
G1 X171.589 Y68.785 E78.34606
G1 X171.682 Y69.628 E78.38838
G1 X171.699 Y70.187 E78.41628
G1 X171.699 Y80.187 E78.91518
G1 X171.659 Y81.034 E78.95748
G1 X171.539 Y81.874 E78.99982
G1 X171.341 Y82.699 E79.04215
G1 X171.066 Y83.502 E79.08449
G1 X170.717 Y84.275 E79.1268
G1 X170.297 Y85.011 E79.16908
G1 X169.809 Y85.705 E79.21141
G1 X169.258 Y86.35 E79.25373
G1 X168.648 Y86.94 E79.29607
G1 X167.986 Y87.47 E79.33838
G1 X167.277 Y87.936 E79.38071
G1 X166.527 Y88.332 E79.42302
G1 X165.743 Y88.657 E79.46536
G1 X164.932 Y88.906 E79.50769
G1 X164.101 Y89.077 E79.55001
G1 X163.258 Y89.17 E79.59233
G1 X162.699 Y89.187 E79.62023
G1 X133.199 Y89.187 E81.09199
G1 X132.352 Y89.147 E81.13429
G1 X131.512 Y89.027 E81.17663
G1 X130.687 Y88.829 E81.21895
G1 X129.884 Y88.554 E81.2613
G1 X129.111 Y88.205 E81.30361
G1 X128.375 Y87.785 E81.34589
G1 X127.681 Y87.297 E81.38822
G1 X127.036 Y86.746 E81.43054
G1 X126.571 Y86.265 E81.46392
G1 X126.571 Y92.697 E81.78481
G1 X170.017 Y92.697 E83.95234
G1 X170.864 Y92.737 E83.99465
G1 X171.704 Y92.857 E84.03698
G1 X172.529 Y93.055 E84.07931
G1 X173.332 Y93.33 E84.12165
G1 X174.105 Y93.679 E84.16397
G1 X174.841 Y94.099 E84.20624
G1 X175.535 Y94.587 E84.24857
G1 X176.18 Y95.138 E84.29089
G1 X176.77 Y95.748 E84.33323
G1 X177.3 Y96.41 E84.37554
G1 X177.766 Y97.119 E84.41787
G1 X178.162 Y97.869 E84.46018
G1 X178.487 Y98.653 E84.50252
G1 X178.736 Y99.464 E84.54485
G1 X178.907 Y100.295 E84.58718
G1 X179 Y101.138 E84.62949
G1 X179.017 Y101.697 E84.65739
G1 X179.017 Y161.697 E87.6508
G1 X178.977 Y162.544 E87.69311
G1 X178.857 Y163.384 E87.73544
G1 X178.659 Y164.209 E87.77777
G1 X178.384 Y165.012 E87.82011
G1 X178.035 Y165.785 E87.86243
G1 X177.615 Y166.521 E87.9047
G1 X177.127 Y167.215 E87.94703
G1 X176.576 Y167.86 E87.98935
G1 X175.966 Y168.45 E88.03169
G1 X175.304 Y168.98 E88.074
G1 X174.595 Y169.446 E88.11633
G1 X173.845 Y169.842 E88.15864
G1 X173.061 Y170.167 E88.20098
G1 X172.25 Y170.416 E88.24331
G1 X171.419 Y170.587 E88.28564
G1 X170.576 Y170.68 E88.32795
G1 X170.017 Y170.697 E88.35585
G1 X112.349 Y170.697 E91.23292
G1 X112.349 Y171.533 E91.27463
G1 X112.309 Y172.38 E91.31693
G1 X112.189 Y173.22 E91.35926
G1 X111.991 Y174.045 E91.40159
G1 X111.716 Y174.848 E91.44394
G1 X111.367 Y175.621 E91.48625
G1 X110.947 Y176.357 E91.52853
G1 X110.459 Y177.051 E91.57086
G1 X109.908 Y177.696 E91.61318
G1 X109.298 Y178.286 E91.65552
G1 X108.636 Y178.816 E91.69782
G1 X107.927 Y179.282 E91.74015
G1 X107.177 Y179.678 E91.78247
G1 X106.393 Y180.003 E91.82481
G1 X105.582 Y180.252 E91.86713
G1 X104.751 Y180.423 E91.90946
G1 X103.908 Y180.516 E91.95177
G1 X103.349 Y180.533 E91.97967
G1 X33.349 Y180.533 E95.47199
G1 X32.502 Y180.493 E95.51429
G1 X31.662 Y180.373 E95.55663
