;FLAVOR:Marlin
;TIME:2409
;Filament used: 1.2723m
;Layer height: 0.1
;MINX:78.2
;MINY:75.2
;MINZ:0.3
;MAXX:121.8
;MAXY:124.8
;MAXZ:10.2
;Generated with Cura_SteamEngine 4.8.0
M140 S50
M105
M190 S50
M104 S215
M105
M109 S215
M82 ;absolute extrusion mode
G21 ;metric values
G90 ;absolute positioning
M82 ;set extruder to absolute mode
M107 ;start with the fan off
G28 X0 Y0 ;move X/Y to min endstops
G28 Z0 ;move Z to min endstops
G1 Z15.0 F9000 ;move the platform down 15mm
G92 E0 ;zero the extruded length
G1 F200 E3 ;extrude 3mm of feed stock
G92 E0 ;zero the extruded length again
G1 F9000
;Put printing message on LCD screen
M117 Printing...
G92 E0
G92 E0
G1 F1500 E-6.5
;LAYER_COUNT:98
;LAYER:0
M107
G1 F600 Z1.3
G0 F3600 X81.422 Y78.903 Z1.3
;TYPE:SKIRT
G1 F600 Z0.3
G1 F1500 E0
G1 F1800 X82.054 Y78.283 E0.04417
G1 X82.659 Y77.783 E0.08333
G1 X83.073 Y77.468 E0.10928
G1 X83.801 Y76.964 E0.15346
G1 X84.571 Y76.528 E0.1976
G1 X85.225 Y76.226 E0.23354
G1 X85.684 Y76.034 E0.25836
G1 X86.515 Y75.73 E0.30251
G1 X87.371 Y75.502 E0.3467
G1 X88.111 Y75.369 E0.38421
G1 X88.634 Y75.296 E0.41056
G1 X89.516 Y75.213 E0.45476
G1 X89.988 Y75.202 E0.47831
G1 X109.995 Y75.2 E1.47647
G1 X111.209 Y75.275 E1.53715
G1 X111.706 Y75.337 E1.56213
G1 X112.579 Y75.487 E1.60633
G1 X113.434 Y75.714 E1.65046
G1 X114.145 Y75.968 E1.68813
G1 X114.633 Y76.164 E1.71437
G1 X115.439 Y76.531 E1.75855
G1 X116.208 Y76.969 E1.8027
G1 X116.876 Y77.429 E1.84317
G1 X117.293 Y77.743 E1.86921
G1 X117.975 Y78.307 E1.91336
G1 X118.604 Y78.93 E1.95753
G1 X119.12 Y79.537 E1.99728
G1 X119.442 Y79.949 E2.02336
G1 X119.955 Y80.671 E2.06755
G1 X120.4 Y81.435 E2.11166
G1 X120.735 Y82.142 E2.15069
G1 X120.937 Y82.616 E2.1764
G1 X121.247 Y83.445 E2.22056
G1 X121.481 Y84.299 E2.26473
G1 X121.619 Y85.043 E2.30248
G1 X121.695 Y85.564 E2.32875
G1 X121.783 Y86.445 E2.37292
G1 X121.798 Y86.978 E2.39953
G1 X121.8 Y114.882 E3.79166
G1 X121.76 Y115.767 E3.83586
G1 X121.641 Y116.644 E3.88001
G1 X121.442 Y117.506 E3.92415
G1 X121.167 Y118.348 E3.96834
G1 X120.817 Y119.161 E4.0125
G1 X120.395 Y119.939 E4.05666
G1 X119.905 Y120.676 E4.10081
G1 X119.35 Y121.366 E4.14499
G1 X118.93 Y121.813 E4.17559
G1 X118.813 Y121.93 E4.18385
G1 X118.159 Y122.527 E4.22802
G1 X117.454 Y123.062 E4.27218
G1 X116.704 Y123.532 E4.31634
G1 X115.914 Y123.932 E4.36051
G1 X115.092 Y124.26 E4.40467
G1 X114.243 Y124.511 E4.44884
G1 X113.375 Y124.686 E4.49301
G1 X112.495 Y124.781 E4.53717
G1 X111.883 Y124.8 E4.56772
G1 X88.117 Y124.8 E5.75341
G1 X87.233 Y124.76 E5.79756
G1 X86.356 Y124.64 E5.84172
G1 X85.493 Y124.442 E5.88589
G1 X84.652 Y124.167 E5.93004
G1 X83.839 Y123.817 E5.9742
G1 X83.06 Y123.395 E6.0184
G1 X82.324 Y122.904 E6.06254
G1 X81.634 Y122.349 E6.10671
G1 X81.187 Y121.93 E6.13728
G1 X81.07 Y121.813 E6.14554
G1 X80.473 Y121.159 E6.18971
G1 X79.938 Y120.454 E6.23387
G1 X79.468 Y119.704 E6.27803
G1 X79.068 Y118.914 E6.3222
G1 X78.74 Y118.092 E6.36636
G1 X78.489 Y117.243 E6.41053
G1 X78.314 Y116.375 E6.4547
G1 X78.219 Y115.495 E6.49886
G1 X78.2 Y114.883 E6.52941
G1 X78.201 Y86.993 E7.92085
G1 X78.241 Y86.108 E7.96504
G1 X78.292 Y85.662 E7.98744
G1 X78.363 Y85.144 E8.01352
G1 X78.522 Y84.274 E8.05765
G1 X78.76 Y83.421 E8.10183
G1 X79.029 Y82.699 E8.14027
G1 X79.229 Y82.22 E8.16617
G1 X79.606 Y81.419 E8.21033
G1 X80.055 Y80.656 E8.2545
G1 X80.527 Y79.991 E8.29519
G1 X80.848 Y79.577 E8.32132
G1 X81.422 Y78.903 E8.36549
G0 F3600 X81.727 Y79.162
G1 F1800 X82.347 Y78.557 E8.40871
G1 X82.901 Y78.101 E8.44451
G1 X83.315 Y77.786 E8.47046
G1 X84.029 Y77.294 E8.51372
G1 X84.784 Y76.869 E8.55694
G1 X85.38 Y76.595 E8.58967
G1 X85.839 Y76.403 E8.61449
G1 X86.653 Y76.106 E8.65772
G1 X87.491 Y75.885 E8.70096
G1 X88.167 Y75.765 E8.73521
G1 X88.69 Y75.692 E8.76156
G1 X89.553 Y75.612 E8.8048
G1 X89.988 Y75.602 E8.82651
G1 X109.995 Y75.6 E9.82466
G1 X111.16 Y75.672 E9.88289
G1 X111.657 Y75.734 E9.90788
G1 X112.511 Y75.881 E9.95111
G1 X113.348 Y76.106 E9.99435
G1 X113.996 Y76.339 E10.02871
G1 X114.484 Y76.535 E10.05495
G1 X115.273 Y76.895 E10.09821
G1 X116.025 Y77.326 E10.14145
G1 X116.635 Y77.749 E10.17849
G1 X117.052 Y78.063 E10.20453
G1 X117.72 Y78.616 E10.2478
G1 X118.334 Y79.228 E10.29105
G1 X118.804 Y79.784 E10.32737
G1 X119.126 Y80.196 E10.35346
G1 X119.628 Y80.903 E10.39672
G1 X120.063 Y81.653 E10.43997
G1 X120.367 Y82.299 E10.47559
G1 X120.569 Y82.773 E10.5013
G1 X120.872 Y83.585 E10.54454
G1 X121.099 Y84.422 E10.5878
G1 X121.224 Y85.101 E10.62225
G1 X121.3 Y85.622 E10.64852
G1 X121.385 Y86.485 E10.69178
G1 X121.398 Y86.978 E10.71638
G1 X121.4 Y114.882 E12.10852
G1 X121.36 Y115.748 E12.15177
G1 X121.241 Y116.607 E12.19504
G1 X121.042 Y117.451 E12.2383
G1 X120.767 Y118.273 E12.28154
G1 X120.418 Y119.067 E12.32481
G1 X119.997 Y119.824 E12.36803
G1 X119.507 Y120.54 E12.41131
G1 X118.954 Y121.208 E12.45458
G1 X118.53 Y121.647 E12.48503
G1 X117.889 Y122.231 E12.52829
G1 X117.197 Y122.754 E12.57156
G1 X116.46 Y123.21 E12.6148
G1 X115.685 Y123.597 E12.65802
G1 X114.876 Y123.911 E12.70131
G1 X114.043 Y124.149 E12.74453
G1 X113.191 Y124.309 E12.78778
G1 X112.328 Y124.389 E12.83102
G1 X111.883 Y124.4 E12.85323
G1 X88.117 Y124.4 E14.03892
G1 X87.251 Y124.36 E14.08217
G1 X86.392 Y124.24 E14.12545
G1 X85.548 Y124.042 E14.1687
G1 X84.726 Y123.767 E14.21194
G1 X83.933 Y123.417 E14.25518
G1 X83.175 Y122.996 E14.29844
G1 X82.46 Y122.507 E14.34166
G1 X81.792 Y121.954 E14.38492
G1 X81.353 Y121.53 E14.41537
G1 X80.769 Y120.889 E14.45864
G1 X80.246 Y120.197 E14.50191
G1 X79.79 Y119.46 E14.54515
G1 X79.403 Y118.685 E14.58837
G1 X79.089 Y117.876 E14.63166
G1 X78.851 Y117.043 E14.67488
G1 X78.691 Y116.191 E14.71813
G1 X78.611 Y115.328 E14.76137
G1 X78.6 Y114.883 E14.78358
G1 X78.601 Y86.993 E16.17502
G1 X78.688 Y85.717 E16.23882
G1 X78.759 Y85.199 E16.26491
G1 X78.916 Y84.346 E16.30818
G1 X79.151 Y83.511 E16.35146
G1 X79.398 Y82.853 E16.38652
G1 X79.598 Y82.374 E16.41242
G1 X79.968 Y81.59 E16.45567
G1 X80.41 Y80.844 E16.49893
G1 X80.843 Y80.236 E16.53617
G1 X81.164 Y79.822 E16.56231
G1 X81.727 Y79.162 E16.60559
G0 F3600 X82.031 Y79.422
G1 F1800 X82.64 Y78.832 E16.64789
G1 X83.143 Y78.42 E16.68033
G1 X83.557 Y78.105 E16.70628
G1 X84.256 Y77.623 E16.74864
G1 X84.997 Y77.21 E16.79096
G1 X85.534 Y76.964 E16.82043
G1 X85.993 Y76.772 E16.84525
G1 X86.79 Y76.482 E16.88757
G1 X87.611 Y76.268 E16.9299
G1 X88.222 Y76.161 E16.96084
G1 X88.745 Y76.088 E16.98719
G1 X89.988 Y76.002 E17.04935
G1 X109.995 Y76 E18.0475
G1 X111.11 Y76.069 E18.10324
G1 X111.607 Y76.131 E18.12822
G1 X112.443 Y76.276 E18.17056
G1 X113.262 Y76.498 E18.21289
G1 X113.847 Y76.71 E18.24393
G1 X114.335 Y76.906 E18.27017
G1 X115.107 Y77.259 E18.31252
G1 X115.841 Y77.683 E18.35481
G1 X116.395 Y78.068 E18.38847
G1 X116.812 Y78.382 E18.41451
G1 X117.465 Y78.924 E18.45685
G1 X118.064 Y79.525 E18.49918
G1 X118.489 Y80.03 E18.53211
G1 X118.811 Y80.442 E18.5582
G1 X119.301 Y81.134 E18.6005
G1 X119.724 Y81.869 E18.64281
G1 X120 Y82.456 E18.67517
G1 X120.202 Y82.93 E18.70088
G1 X120.497 Y83.725 E18.74318
G1 X120.716 Y84.544 E18.78548
G1 X120.828 Y85.159 E18.81667
G1 X120.904 Y85.68 E18.84293
G1 X120.986 Y86.524 E18.88524
G1 X120.998 Y86.978 E18.9079
G1 X121 Y114.882 E20.30003
G1 X120.96 Y115.73 E20.34239
G1 X120.841 Y116.57 E20.38471
G1 X120.643 Y117.394 E20.42699
G1 X120.368 Y118.197 E20.46934
G1 X120.018 Y118.97 E20.51167
G1 X119.598 Y119.707 E20.55399
G1 X119.11 Y120.401 E20.59632
G1 X118.364 Y121.247 E20.65259
G1 X118.247 Y121.364 E20.66085
G1 X117.62 Y121.935 E20.70316
G1 X116.941 Y122.444 E20.7455
G1 X116.218 Y122.887 E20.7878
G1 X115.456 Y123.26 E20.83012
G1 X114.662 Y123.56 E20.87247
G1 X113.844 Y123.784 E20.91478
G1 X113.008 Y123.929 E20.95711
G1 X111.883 Y124 E21.01335
G1 X88.117 Y124 E22.19904
G1 X87.27 Y123.96 E22.24135
G1 X86.43 Y123.84 E22.28368
G1 X85.605 Y123.642 E22.32601
G1 X84.802 Y123.367 E22.36835
G1 X84.029 Y123.018 E22.41067
G1 X83.293 Y122.598 E22.45295
G1 X82.599 Y122.11 E22.49527
G1 X81.753 Y121.364 E22.55155
G1 X81.636 Y121.247 E22.5598
G1 X81.065 Y120.62 E22.60211
G1 X80.556 Y119.941 E22.64445
G1 X80.113 Y119.218 E22.68675
G1 X79.74 Y118.456 E22.72908
G1 X79.44 Y117.662 E22.77142
G1 X79.216 Y116.844 E22.81373
G1 X79.071 Y116.008 E22.85607
G1 X79 Y114.883 E22.9123
G1 X79.001 Y86.993 E24.30374
G1 X79.084 Y85.771 E24.36485
G1 X79.155 Y85.253 E24.39093
G1 X79.31 Y84.419 E24.43325
G1 X79.543 Y83.603 E24.47559
G1 X79.767 Y83.007 E24.50736
G1 X79.967 Y82.528 E24.53325
G1 X80.33 Y81.762 E24.57554
G1 X80.764 Y81.033 E24.61787
G1 X81.16 Y80.481 E24.65176
G1 X81.481 Y80.067 E24.6779
G1 X82.031 Y79.422 E24.72019
G0 F3600 X82.336 Y79.682
G1 F1800 X82.933 Y79.107 E24.76154
G1 X83.386 Y78.738 E24.79069
G1 X83.8 Y78.423 E24.81664
G1 X84.483 Y77.953 E24.85801
G1 X85.208 Y77.551 E24.89937
G1 X85.688 Y77.333 E24.92567
G1 X86.147 Y77.141 E24.95049
G1 X86.927 Y76.858 E24.99189
G1 X87.73 Y76.652 E25.03325
G1 X88.277 Y76.558 E25.06094
G1 X88.8 Y76.485 E25.08728
G1 X89.988 Y76.402 E25.14669
G1 X109.995 Y76.4 E26.14485
G1 X111.061 Y76.466 E26.19813
G1 X111.558 Y76.528 E26.22312
G1 X112.375 Y76.67 E26.26449
G1 X113.174 Y76.891 E26.30585
G1 X113.698 Y77.082 E26.33368
G1 X114.186 Y77.278 E26.35991
G1 X114.94 Y77.623 E26.40128
G1 X115.657 Y78.04 E26.44266
G1 X116.154 Y78.388 E26.47293
G1 X116.571 Y78.702 E26.49897
G1 X117.209 Y79.232 E26.54035
G1 X117.792 Y79.821 E26.5817
G1 X118.174 Y80.276 E26.61134
G1 X118.496 Y80.688 E26.63743
G1 X118.975 Y81.365 E26.6788
G1 X119.386 Y82.086 E26.72021
G1 X119.632 Y82.612 E26.74918
G1 X119.834 Y83.086 E26.77488
G1 X120.121 Y83.864 E26.81625
G1 X120.333 Y84.666 E26.85764
G1 X120.432 Y85.217 E26.88557
G1 X120.508 Y85.738 E26.91184
G1 X120.588 Y86.563 E26.95319
G1 X120.598 Y86.978 E26.9739
G1 X120.6 Y114.882 E28.36604
G1 X120.56 Y115.711 E28.40744
G1 X120.441 Y116.531 E28.44878
G1 X120.243 Y117.336 E28.49014
G1 X119.968 Y118.119 E28.53155
G1 X119.619 Y118.871 E28.57291
G1 X119.2 Y119.586 E28.61425
G1 X118.713 Y120.258 E28.65566
G1 X118.081 Y120.964 E28.70293
G1 X117.964 Y121.081 E28.71118
G1 X117.35 Y121.639 E28.75258
G1 X116.685 Y122.134 E28.79394
G1 X115.976 Y122.564 E28.83531
G1 X115.229 Y122.923 E28.87665
G1 X114.45 Y123.208 E28.91804
G1 X113.648 Y123.417 E28.95939
G1 X112.829 Y123.548 E29.00077
G1 X111.883 Y123.6 E29.04803
G1 X88.117 Y123.6 E30.23372
G1 X87.289 Y123.56 E30.27508
G1 X86.468 Y123.44 E30.31648
G1 X85.663 Y123.242 E30.35783
G1 X84.881 Y122.968 E30.39917
G1 X84.128 Y122.619 E30.44058
G1 X83.413 Y122.199 E30.48195
G1 X82.742 Y121.713 E30.52329
G1 X82.036 Y121.081 E30.57056
G1 X81.919 Y120.964 E30.57881
G1 X81.361 Y120.35 E30.62021
G1 X80.866 Y119.685 E30.66157
G1 X80.436 Y118.976 E30.70294
G1 X80.077 Y118.229 E30.74428
G1 X79.792 Y117.45 E30.78567
G1 X79.583 Y116.648 E30.82702
G1 X79.452 Y115.829 E30.8684
G1 X79.4 Y114.883 E30.91566
G1 X79.401 Y86.993 E32.3071
G1 X79.481 Y85.825 E32.36551
G1 X79.552 Y85.307 E32.39159
G1 X79.704 Y84.492 E32.43296
G1 X79.934 Y83.695 E32.47434
G1 X80.136 Y83.161 E32.50282
G1 X80.336 Y82.682 E32.52872
G1 X80.692 Y81.934 E32.57005
G1 X81.118 Y81.222 E32.61144
G1 X81.476 Y80.726 E32.64196
G1 X81.797 Y80.312 E32.6681
G1 X82.336 Y79.682 E32.70946
G0 F3600 X82.64 Y79.943
G1 F1800 X83.225 Y79.383 E32.74986
G1 X83.628 Y79.056 E32.77576
G1 X84.042 Y78.741 E32.80171
G1 X84.71 Y78.283 E32.84212
G1 X85.419 Y77.894 E32.88246
G1 X86.302 Y77.51 E32.9305
G1 X87.063 Y77.235 E32.97087
G1 X87.848 Y77.036 E33.01127
G1 X88.332 Y76.954 E33.03577
G1 X88.855 Y76.881 E33.06211
G1 X89.988 Y76.802 E33.11877
G1 X109.995 Y76.8 E34.11693
G1 X111.011 Y76.863 E34.16771
G1 X111.508 Y76.925 E34.1927
G1 X112.306 Y77.065 E34.23312
G1 X113.085 Y77.283 E34.27348
G1 X113.549 Y77.453 E34.29813
G1 X114.037 Y77.649 E34.32437
G1 X114.773 Y77.987 E34.36478
G1 X115.471 Y78.397 E34.40516
G1 X115.914 Y78.707 E34.43214
G1 X116.331 Y79.021 E34.45818
G1 X116.953 Y79.54 E34.4986
G1 X117.52 Y80.117 E34.53895
G1 X117.859 Y80.523 E34.56534
G1 X118.181 Y80.935 E34.59143
G1 X118.647 Y81.596 E34.63178
G1 X119.046 Y82.301 E34.67219
G1 X119.264 Y82.769 E34.69795
G1 X119.466 Y83.243 E34.72366
G1 X119.746 Y84.003 E34.76407
G1 X119.95 Y84.786 E34.80443
G1 X120.036 Y85.274 E34.82916
G1 X120.112 Y85.795 E34.85542
G1 X120.198 Y86.978 E34.9146
G1 X120.2 Y114.882 E36.30674
G1 X120.16 Y115.691 E36.34715
G1 X120.041 Y116.492 E36.38755
G1 X119.843 Y117.277 E36.42794
G1 X119.568 Y118.039 E36.46835
G1 X119.22 Y118.77 E36.50874
G1 X118.802 Y119.463 E36.54912
G1 X118.317 Y120.112 E36.58954
G1 X117.798 Y120.681 E36.62796
G1 X117.681 Y120.798 E36.63622
G1 X117.081 Y121.342 E36.67663
G1 X116.43 Y121.824 E36.71704
G1 X115.735 Y122.239 E36.75742
G1 X115.003 Y122.583 E36.79777
G1 X114.239 Y122.854 E36.83822
G1 X113.453 Y123.048 E36.87861
G1 X112.652 Y123.164 E36.91899
G1 X111.883 Y123.2 E36.95739
G1 X88.117 Y123.2 E38.14308
G1 X87.308 Y123.16 E38.18349
G1 X86.507 Y123.04 E38.2239
G1 X85.722 Y122.843 E38.26428
G1 X84.961 Y122.568 E38.30465
G1 X84.23 Y122.22 E38.34504
G1 X83.536 Y121.801 E38.38549
G1 X82.888 Y121.316 E38.42587
G1 X82.319 Y120.798 E38.46426
G1 X82.202 Y120.681 E38.47251
G1 X81.658 Y120.081 E38.51292
G1 X81.176 Y119.43 E38.55333
G1 X80.761 Y118.735 E38.59371
G1 X80.417 Y118.003 E38.63407
G1 X80.146 Y117.239 E38.67451
G1 X79.952 Y116.453 E38.7149
G1 X79.836 Y115.652 E38.75528
G1 X79.8 Y114.883 E38.79369
G1 X79.801 Y86.993 E40.18512
G1 X79.877 Y85.879 E40.24083
G1 X79.948 Y85.361 E40.26692
G1 X80.097 Y84.566 E40.30727
G1 X80.325 Y83.789 E40.34767
G1 X80.505 Y83.316 E40.37292
G1 X80.705 Y82.837 E40.39881
G1 X81.054 Y82.106 E40.43923
G1 X81.472 Y81.413 E40.4796
G1 X81.792 Y80.971 E40.50683
G1 X82.113 Y80.557 E40.53296
G1 X82.64 Y79.943 E40.57333
G0 F3600 X82.944 Y80.204
G1 F1800 X83.516 Y79.66 E40.61271
G1 X83.87 Y79.375 E40.63539
G1 X84.284 Y79.06 E40.66134
G1 X84.936 Y78.614 E40.70075
G1 X85.629 Y78.236 E40.74013
G1 X86.456 Y77.879 E40.78507
G1 X87.199 Y77.612 E40.82446
G1 X87.965 Y77.421 E40.86385
G1 X88.388 Y77.35 E40.88525
G1 X88.911 Y77.277 E40.91159
G1 X89.988 Y77.202 E40.96545
G1 X109.995 Y77.2 E41.96361
G1 X110.962 Y77.26 E42.01194
G1 X111.459 Y77.322 E42.03693
G1 X112.236 Y77.459 E42.07629
G1 X112.996 Y77.675 E42.11571
G1 X113.4 Y77.824 E42.1372
G1 X113.888 Y78.02 E42.16343
G1 X114.605 Y78.351 E42.20283
G1 X115.285 Y78.753 E42.24224
G1 X115.673 Y79.027 E42.26594
G1 X116.09 Y79.341 E42.29198
G1 X116.696 Y79.847 E42.33137
G1 X117.248 Y80.412 E42.37078
G1 X117.544 Y80.769 E42.39391
G1 X117.866 Y81.181 E42.42
G1 X118.32 Y81.827 E42.45939
G1 X118.706 Y82.515 E42.49875
G1 X118.896 Y82.926 E42.52134
G1 X119.098 Y83.4 E42.54705
G1 X119.37 Y84.141 E42.58643
G1 X119.566 Y84.906 E42.62583
G1 X119.64 Y85.332 E42.6474
G1 X119.716 Y85.853 E42.67367
G1 X119.798 Y86.978 E42.72994
G1 X119.8 Y114.882 E44.12208
G1 X119.76 Y115.671 E44.16149
G1 X119.641 Y116.452 E44.20091
G1 X119.443 Y117.216 E44.24028
G1 X119.169 Y117.957 E44.2797
G1 X118.821 Y118.666 E44.3191
G1 X118.404 Y119.336 E44.35847
G1 X117.921 Y119.961 E44.39788
G1 X117.515 Y120.398 E44.42764
G1 X117.398 Y120.515 E44.43589
G1 X116.812 Y121.045 E44.47531
G1 X116.176 Y121.512 E44.51468
G1 X115.496 Y121.913 E44.55406
G1 X114.778 Y122.243 E44.59349
G1 X114.031 Y122.498 E44.63287
G1 X113.262 Y122.677 E44.67226
G1 X112.478 Y122.777 E44.71169
G1 X111.883 Y122.8 E44.74139
G1 X88.117 Y122.8 E45.92708
G1 X87.328 Y122.76 E45.9665
G1 X86.548 Y122.641 E46.00586
G1 X85.783 Y122.443 E46.04529
G1 X85.043 Y122.169 E46.08465
G1 X84.334 Y121.821 E46.12406
G1 X83.663 Y121.403 E46.1635
G1 X83.039 Y120.92 E46.20287
G1 X82.602 Y120.515 E46.23259
G1 X82.485 Y120.398 E46.24085
G1 X81.955 Y119.812 E46.28027
G1 X81.488 Y119.176 E46.31963
G1 X81.087 Y118.496 E46.35902
G1 X80.757 Y117.778 E46.39844
G1 X80.502 Y117.031 E46.43782
G1 X80.323 Y116.262 E46.47721
G1 X80.223 Y115.478 E46.51664
G1 X80.2 Y114.883 E46.54635
G1 X80.201 Y86.993 E47.93779
G1 X80.273 Y85.934 E47.99074
G1 X80.344 Y85.416 E48.01683
G1 X80.491 Y84.64 E48.05623
G1 X80.715 Y83.883 E48.09562
G1 X80.874 Y83.47 E48.11769
G1 X81.074 Y82.991 E48.14359
G1 X81.415 Y82.278 E48.18302
G1 X81.826 Y81.604 E48.22241
G1 X82.108 Y81.217 E48.2463
G1 X82.429 Y80.803 E48.27243
